packages/sources/icons/src/vitamix/whatsapp-fill.svg

<svg width="16" height="16" viewBox="0 0 16 16" xmlns="http://www.w3.org/2000/svg"><path fill-rule="evenodd" clip-rule="evenodd" d="M2.23726 11.3547L1.33593 14.6667L4.64659 13.7633C5.66437 14.3568 6.82178 14.6686 7.99993 14.6667C11.6819 14.6667 14.6666 11.682 14.6666 8.00001C14.6666 4.31801 11.6819 1.33334 7.99993 1.33334C4.31793 1.33334 1.33326 4.31801 1.33326 8.00001C1.33132 9.17867 1.64335 10.3366 2.23726 11.3547ZM5.34662 4.93868C5.42373 4.90003 5.50786 4.87736 5.59395 4.87201C5.68337 4.86579 5.77309 4.86423 5.86262 4.86868C5.89862 4.87134 5.93462 4.87534 5.97062 4.87934C6.07662 4.89201 6.19328 4.95601 6.23262 5.04534C6.43128 5.49601 6.62462 5.95001 6.81128 6.40601C6.85262 6.50668 6.82795 6.63668 6.74928 6.76334C6.6952 6.84922 6.63668 6.93223 6.57395 7.01201C6.49862 7.10801 6.33662 7.28534 6.33662 7.28534C6.33662 7.28534 6.27062 7.36401 6.29595 7.46201C6.31286 7.51021 6.3357 7.55612 6.36395 7.59868L6.40328 7.66201C6.59243 7.97202 6.821 8.25617 7.08328 8.50734C7.10483 8.52818 7.12624 8.5492 7.14765 8.57024C7.20574 8.62729 7.26391 8.68443 7.32528 8.73801C7.63743 9.01324 7.99056 9.23816 8.37195 9.40468L8.37528 9.40601C8.39169 9.41315 8.40575 9.41934 8.41945 9.42538C8.45307 9.44019 8.48455 9.45405 8.54328 9.47868C8.58463 9.49636 8.62718 9.51106 8.67062 9.52268C8.76241 9.5463 8.85936 9.51205 8.91595 9.43601C9.39795 8.85201 9.44262 8.81401 9.44595 8.81401V8.81534C9.51379 8.75207 9.60567 8.7212 9.69795 8.73068C9.73863 8.73248 9.77863 8.74174 9.81595 8.75801C10.17 8.91934 10.75 9.17201 10.75 9.17201L11.138 9.34601C11.2026 9.37734 11.262 9.45134 11.2646 9.52268C11.2647 9.52519 11.2649 9.52778 11.265 9.53047C11.2671 9.57562 11.2704 9.64676 11.2553 9.77134C11.234 9.94401 11.182 10.1513 11.13 10.26C11.0933 10.3367 11.0453 10.404 10.99 10.4613C10.9153 10.5393 10.86 10.5867 10.77 10.6533C10.7153 10.6947 10.6866 10.7133 10.6866 10.7133C10.594 10.772 10.542 10.8013 10.4313 10.86C10.2597 10.9514 10.0701 11.004 9.87595 11.014C9.85438 11.0151 9.83283 11.0162 9.8113 11.0173C9.70904 11.0228 9.60716 11.0282 9.50528 11.0227L9.12595 10.9647C8.17812 10.7154 7.30154 10.2483 6.56595 9.60068C6.44027 9.48952 6.32208 9.37135 6.20315 9.25243C6.18013 9.22941 6.15708 9.20637 6.13395 9.18334C5.54128 8.59334 5.09262 7.95668 4.81995 7.35534C4.68662 7.05801 4.60128 6.74001 4.59995 6.41334C4.59769 6.00896 4.73022 5.61534 4.97662 5.29468C4.984 5.28507 4.99131 5.27541 4.99867 5.26568C5.03984 5.21129 5.08276 5.15458 5.15062 5.09068C5.20828 5.03083 5.2743 4.97963 5.34662 4.93868Z"/></svg>

<svg width="16" height="16" xmlns="http://www.w3.org/2000/svg"><path fill-rule="evenodd" clip-rule="evenodd" d="m2.237 11.355-.901 3.312 3.31-.904a6.667 6.667 0 1 0-2.41-2.409Zm3.11-6.416a.64.64 0 0 1 .247-.067c.09-.006.18-.008.269-.003.036.002.072.006.108.01.106.013.222.077.262.166.198.451.392.905.578 1.361.042.1.017.23-.062.357a2.917 2.917 0 0 1-.175.249c-.075.096-.237.273-.237.273s-.066.079-.041.177c.017.048.04.094.068.137l.04.063a4.197 4.197 0 0 0 .744.908c.058.057.116.114.177.168.312.275.666.5 1.047.667l.003.001a9.555 9.555 0 0 1 .168.073.945.945 0 0 0 .128.044.233.233 0 0 0 .245-.087c.482-.584.527-.622.53-.622v.001a.321.321 0 0 1 .252-.084c.04.001.08.01.118.027.354.161.934.414.934.414l.388.174c.065.031.124.105.127.177v.007a1.856 1.856 0 0 1-.135.73.765.765 0 0 1-.14.201c-.075.078-.13.126-.22.192-.055.042-.083.06-.083.06a3.201 3.201 0 0 1-.256.147 1.327 1.327 0 0 1-.62.157c-.102.006-.204.011-.306.006l-.38-.058A6.299 6.299 0 0 1 6.567 9.6a8.208 8.208 0 0 1-.432-.418c-.593-.59-1.041-1.226-1.314-1.828a2.332 2.332 0 0 1-.22-.942 1.82 1.82 0 0 1 .399-1.147c.04-.055.084-.111.152-.175a.862.862 0 0 1 .196-.152Z"/></svg>
